X: 13560
T: Fly By Night
R: hornpipe
M: 4/4
K: Dmajor
gdcd BGDG|BD (3GBd gdBd|=cEGe BDGd|ADFA dz (3def|
gdcd BGDG|BD (3GBd (3gdB (3GBd|e=cGE Ggfe|dB (3=cBA G2 z^d||
e2BA GEEB|EGBE GBec|d2AG (3FGA EA|DEFA dz (3def|
gded Bd Ad|BD (3GBd (3gdB (3GBd|e=cGE Ggfe|dB (3=cBA G2 zf||

